static/assets/img/icons/theme/cooking/baking-glove.svg

<svg height="24" viewBox="0 0 24 24" width="24" xmlns="http://www.w3.org/2000/svg"><g fill="none" fill-rule="evenodd"><path d="m0 0h24v24h-24z" opacity="0"/><g fill="#000"><path d="m7.03587629 17.2664036-4.49492821-3.0318673c-.91572961-.6176674-1.15735676-1.8607313-.53968933-2.776461.61766742-.9157296 1.86073133-1.1573567 2.77646095-.5396893l2.2222803 1.498947v-4.417333c0-3.3137085 2.6862915-6 6-6s6 2.6862915 6 6v9c0 .5522847-.4477153 1-1 1h-10c-.46003282 0-.84751245-.3106372-.96412371-.7335964z"/><rect height="2" opacity=".3" rx="1" width="14" x="6" y="20"/></g></g></svg>

<svg width="24px" height="24px" viewBox="0 0 24 24" version="1.1" xmlns="http://www.w3.org/2000/svg" xmlns:xlink="http://www.w3.org/1999/xlink">
    <title>Icon For Baking-glove</title>
    <g stroke="none" stroke-width="1" fill="none" fill-rule="evenodd">
        <rect opacity="0" x="0" y="0" width="24" height="24"></rect>
        <path d="M7.03587629,17.2664036 L2.54094808,14.2345363 C1.62521847,13.6168689 1.38359132,12.373805 2.00125875,11.4580753 C2.61892617,10.5423457 3.86199008,10.3007186 4.7777197,10.918386 L7,12.417333 L7,8 C7,4.6862915 9.6862915,2 13,2 C16.3137085,2 19,4.6862915 19,8 L19,17 C19,17.5522847 18.5522847,18 18,18 L8,18 C7.53996718,18 7.15248755,17.6893628 7.03587629,17.2664036 Z" fill="#000000"></path>
        <rect fill="#000000" opacity="0.3" x="6" y="20" width="14" height="2" rx="1"></rect>
    </g>
</svg>
